Flat-Remix-Dark/apps/scalable/braindump.svg

<svg xmlns="http://www.w3.org/2000/svg" xmlns:xlink="http://www.w3.org/1999/xlink" width="384pt" height="384pt" version="1.1" viewBox="0 0 384 384"> <defs> <filter id="alpha" width="100%" height="100%" x="0%" y="0%" filterUnits="objectBoundingBox"> <feColorMatrix in="SourceGraphic" type="matrix" values="0 0 0 0 1 0 0 0 0 1 0 0 0 0 1 0 0 0 1 0"/> </filter> <mask id="mask0"> <g filter="url(#alpha)"> <rect width="384" height="384" x="0" y="0" style="fill:rgb(0%,0%,0%);fill-opacity:0.2"/> </g> </mask> <clipPath id="clip1"> <rect width="384" height="384" x="0" y="0"/> </clipPath> <g id="surface5" clip-path="url(#clip1)"> <path style="fill:rgb(100.000%,100.000%,100.000%)" d="M 144 264 L 147.558594 280 L 236.441406 280 L 240 264 Z M 151.113281 296 L 154.671875 312 L 229.328125 312 L 232.886719 296 Z M 158.214844 328 L 160 336 C 160.625 338.902344 161.664062 341.625 163.0625 344 L 220.902344 344 C 222.304688 341.625 223.351562 338.902344 224 336 L 225.785156 328 Z M 158.214844 328"/> </g> <mask id="mask1"> <g filter="url(#alpha)"> <rect width="384" height="384" x="0" y="0" style="fill:rgb(0%,0%,0%);fill-opacity:0.2"/> </g> </mask> <clipPath id="clip2"> <rect width="384" height="384" x="0" y="0"/> </clipPath> <g id="surface8" clip-path="url(#clip2)"> <path style="fill:rgb(100.000%,100.000%,100.000%)" d="M 192 32 C 134.558594 32 88 78.5625 88 136 C 87.992188 137.367188 88.113281 138.710938 88.199219 140.0625 C 90.289062 84.464844 135.886719 40 192 40 C 247.855469 40 293.296875 84.0625 295.769531 139.3125 C 295.855469 138.207031 295.984375 137.113281 296 136 C 296 78.5625 249.441406 32 192 32 Z M 192 32"/> </g> <mask id="mask2"> <g filter="url(#alpha)"> <rect width="384" height="384" x="0" y="0" style="fill:rgb(0%,0%,0%);fill-opacity:0.2"/> </g> </mask> <clipPath id="clip3"> <rect width="384" height="384" x="0" y="0"/> </clipPath> <g id="surface11" clip-path="url(#clip3)"> <path style="fill:rgb(0%,0%,0%)" d="M 295.769531 139.3125 C 293.457031 168.785156 268.199219 195.441406 256 224 C 250.359375 237.207031 240 264 240 264 L 144 264 C 144 264 133.640625 237.207031 128 224 C 115.902344 195.664062 90.246094 169.527344 88.199219 140.0625 C 88.152344 141.375 88 142.671875 88 144 C 87.785156 175.144531 115.34375 202.367188 128 232 C 133.640625 245.207031 144 272 144 272 L 240 272 C 240 272 250.359375 245.207031 256 232 C 268.65625 202.367188 295.449219 174.800781 296 144 C 296 142.414062 295.832031 140.878906 295.769531 139.3125 Z M 295.769531 139.3125"/> </g> <mask id="mask3"> <g filter="url(#alpha)"> <rect width="384" height="384" x="0" y="0" style="fill:rgb(0%,0%,0%);fill-opacity:0.2"/> </g> </mask> <clipPath id="clip4"> <rect width="384" height="384" x="0" y="0"/> </clipPath> <g id="surface14" clip-path="url(#clip4)"> <path style="fill:rgb(0%,0%,0%)" d="M 144 272 L 160 344 C 161.855469 352.664062 167.136719 360 176 360 L 208 360 C 216.863281 360 222.078125 352.65625 224 344 L 240 272 L 238.214844 272 L 224 336 C 222.078125 344.65625 216.863281 352 208 352 L 176 352 C 167.136719 352 161.855469 344.664062 160 336 L 145.785156 272 Z M 144 272"/> </g> <mask id="mask4"> <g filter="url(#alpha)"> <rect width="384" height="384" x="0" y="0" style="fill:rgb(0%,0%,0%);fill-opacity:0.2"/> </g> </mask> <clipPath id="clip5"> <rect width="384" height="384" x="0" y="0"/> </clipPath> <g id="surface17" clip-path="url(#clip5)"> <path style="fill-rule:evenodd;fill:rgb(0%,0%,0%)" d="M 200 88 L 152 160 L 184 160 L 184 216 L 232 144 L 200 144 Z M 200 88"/> </g> </defs> <g> <path style="fill:rgb(100.000%,78.039%,18.823%)" d="M 192 32 C 134.558594 32 88 78.5625 88 136 C 87.785156 167.144531 115.34375 194.367188 128 224 C 133.640625 237.207031 144 264 144 264 L 240 264 C 240 264 250.359375 237.207031 256 224 C 268.65625 194.367188 295.449219 166.800781 296 136 C 296 78.5625 249.441406 32 192 32 Z M 192 32"/> <path style="fill:rgb(29.803%,29.803%,29.803%)" d="M 240 264 L 224 336 C 222.078125 344.652344 216.863281 352 208 352 L 176 352 C 167.136719 352 161.859375 344.667969 160 336 L 144 264 Z M 240 264"/> <use mask="url(#mask0)" xlink:href="#surface5"/> <use mask="url(#mask1)" xlink:href="#surface8"/> <use mask="url(#mask2)" xlink:href="#surface11"/> <use mask="url(#mask3)" xlink:href="#surface14"/> <use mask="url(#mask4)" xlink:href="#surface17"/> <path style="fill-rule:evenodd;fill:rgb(100.000%,100.000%,100.000%)" d="M 200 80 L 152 152 L 184 152 L 184 208 L 232 136 L 200 136 Z M 200 80"/> </g> </svg>

<svg width="512" height="512" version="1.1" viewBox="0 0 384 384" xmlns="http://www.w3.org/2000/svg"><defs><clipPath id="a"><rect width="384" height="384"/></clipPath><clipPath><rect width="384" height="384"/></clipPath><clipPath><rect width="384" height="384"/></clipPath><clipPath><rect width="384" height="384"/></clipPath><clipPath><rect width="384" height="384"/></clipPath></defs><path d="m192 39.5c-57.441 0-104 46.562-104 104-0.21485 31.145 27.343 58.368 39.999 88 5.6406 13.207 16 40 16 40l16 72c1.8594 8.668 7.1357 15.999 15.999 15.999h32.001c8.8633 0 14.077-7.3467 15.999-15.999l16-72s10.36-26.793 16-40c12.656-29.633 39.448-57.2 39.999-88 0-57.437-46.558-104-104-104z" opacity=".3"/><path d="m192 32c-57.441 0-104 46.562-104 104-0.21484 31.145 27.344 58.367 40 88 5.6406 13.207 16 40 16 40h96s10.359-26.793 16-40c12.656-29.633 39.449-57.199 40-88 0-57.438-46.559-104-104-104z" fill="#ffc72e"/><path d="m240 264-16 72c-1.9219 8.6523-7.1367 16-16 16h-32c-8.8633 0-14.141-7.332-16-16l-16-72z" fill="#4a4a4a"/><g clip-path="url(#a)"><path d="m144 264 3.5586 16h88.883l3.5586-16zm7.1133 32 3.5586 16h74.656l3.5586-16zm7.1016 32 1.7852 8c0.625 2.9023 1.6641 5.625 3.0625 8h57.84c1.4023-2.375 2.4492-5.0977 3.0977-8l1.7852-8z" fill="#fff" opacity=".3"/></g><path d="m200 87.5-48 72h32v56l48-72h-32z" fill-rule="evenodd" opacity=".3"/><path d="m200 80-48 72h32v56l48-72h-32z" fill="#fff" fill-rule="evenodd"/><path transform="scale(.75)" d="m256 42.666c-76.589 0-138.67 62.085-138.67 138.67-0.01039 1.5067 0.0328 3.0047 0.11719 4.498 2.8894-74.032 63.804-133.17 138.55-133.17 74.428 0 135.14 58.632 138.51 132.22 0.07856-1.1815 0.13304-2.3662 0.1543-3.5547 0-76.583-62.077-138.67-138.67-138.67z" fill="#fff" opacity=".3" stroke-width="1.3333"/></svg>
